X: 1
T:Praeludium
T:(Prelude) BWV 936
C:Johann Sebastian Bach
O:Germany
B:From "Sechs kleine Praeludien".
Z:Transcribed by Frank Nordberg - http://www.musicaviva.com

V:1 Program 1 6 up %Harpsichord
V:2 Program 1 6 merge down %Harpsichord
V:3 Program 1 6 bass %Harpsichord
M:2/4
L:1/16
K:D
V:1
A4 d4-|d2cd e2G2|MG2F2 z2d2|F2E2 z2c2|
V:2
F8|E8-|E4 D4-|D4 C4-|
V:3
D,2E,2F,2G,2|A,2B,2C2A,2|D2C2B,2A,2|G,2E,2A,2G,2|

V:1
E2D2 z2B2|D2C2 z2A2|B,2C2 D4-|D2CD EDCD|
V:2
C4 B,4-|B,4 A,4-|A,4 ^G,4|A,8-|
V:3
F,2B,2^G,2E,2|A,2^G,2F,2E,2|D,2C,2B,,2E,2|A,,2B,,2C,2B,,2|

V:1
EDCB, A,G,F,E,|F,2 FG AGFG|AGFE D=CB,A,|B,DEF GB^cd|
V:2
A,2x4x2|x8|x8|x8|
V:3
A,,2B,,2C,2A,,2|D,2E,2F,2E,2|D,2E,2F,2D,2|G,2F,2E,2D,2|

V:1
eGFE Fedc|dF^GA GdcB|cABc DcBA|^GEFG x4|
V:2
x8|x8|x8|x4 ABcd|
V:3
C,2B,,2^A,,2F,,2|B,,2E,,2E,2^G,2|A,2^G,2F,2D,2|E,2D,2C,2B,,2|

V:1
e4 a4-|a2^ga b2d2|c2e2 dcBA|A8:|
V:2
c8|B8-|B2A4^G2|zEC2- C4:|
V:3
A,,2B,,2C,2D,2|E,2F,2^G,2E,2|A,2C,2D,2E,2|A,,3E,A,4:|

V:1
|:A4 e4-|e2f=g agfe|f8-|f8|
V:2
|:z8|z8|D4 A4-|A2B=c dcBA|
V:3
|:A,2B,2A,2=G,2|F,2E,2F,2A,2|D,2E,2D,2=C,2|B,,2A,,2B,,2D,2|

V:1
g4 f4-|f2e^d e4-|e2ab agfe|e2^d4ef|
V:2
B4 A4|G6AB|=c8-|c4 B4-|
V:3
G,,2G,2A,2B,2|=C2=C,2=C2B,2|A,2F,2G,2A,2|B,2A,2G,2F,2|

V:1
g2fg agfa|gfeg fe^df|e8-|e8-|
V:2
B8-|B8-|B2B=c =dcBd|=cBAc BA^GB|
V:3
E,2E2B,2^D2|E2G,2A,2F,2|G,2E2^G,2E2|A,2=C2D2B,2|

V:1
e2f4e2-|e2^d2e2g2|x8|x8|
V:2
A4 =G4|F4 E2z2|Agfa gfe^d|e6z2|
V:3
=CB,A,C B,A,=G,B,|A,G,F,A, G,F,E,=D,|\
=C,B,,A,,C,B,,4|E,4-E,^D,E,F,|

V:1
z8|e8-|e4 =g4-|g2fe fagb|
V:2
b4 =d4-|d2^cB cA^GB|A8-|A4 z4|
V:3
^G,2B,2^G,2E,2|A,2A,,4B,,2|^C,2E,2C,2A,,2|D,2D,,4E,2|

V:1
x8|x8|x8|x8|
V:2
a=cBA Bagf|gB^cd cgfe|fdef Gfed|cABc defg|
V:3
F,2E,2^D,2B,,2|E,2A,,2A,2C2|D2C2B,2G,2|A,2G,2F,2E,2|

V:1
a4 d'4-|d'2c'd' e'2g2|f2a2 gfed|d8:|]
V:2
f8|e8-|e2d4c2|zAF2- F4:|]
V:3
D,2E,2F,2G,2|A,2B,2C2A,2|D2F,2G,2A,2|D,3A,D4:|]

